X: 22
T: Leola
C: Scott Joplin
%%abc-version 2.0
%%abcx-abcm2ps-target-version 5.9.1 (29 Sep 2008)
%%abc-creator hum2abc beta
%%abcx-conversion-date 2021/07/20 09:00:57
%%abc-copyright Copyright 2004 by Craig Stuart Sapp
%%abc-edited-by Craig Stuart Sapp
%%abc-edited-by Craig Stuart Sapp
%%abcx-initial-encoding-date 2004/06/08/
%%humdrum-veritas 1185423482
%%humdrum-veritas-data 980389
%%removed 0's from note length
%%linebreak <none>
%%barnumbers 0
L: 1/8
M: 2/4
N: Derived from leola.krn
Q: "Slow march tempo." 1/4=88
%%staves {1 2}
V: 1 clef=treble
V: 2 clef=bass
K: Ab
[V:1] z [I:setbarnb 1]]|:  
[V:2] [E,E,,] ]|:  
[V:1] z/ e'/c'/a/ e/fc/ | 
[V:2] [A,A,,][CA,E,] [CC,][=A,=A,,] | 
[V:1] d/G/f/e/ d/B/G/E/ | 
[V:2] [B,B,,][DG,E,] [DG,E,][E,E,,] | 
[V:1] z/ e'/c'/a/ e/fc/ | 
[V:2] [A,A,,][CA,E,] [CC,][=A,=A,,] | 
[V:1] d/G/f/e/ d/B/G/E/ | 
[V:2] [B,B,,][DG,E,][D2G,2E,2] | 
[V:1] Bc/B/ A/B/c | 
[V:2] [CG,=E,][CG,E,] [CA,F,][FCA,] | 
[V:1] ef/e/ d/e/f | 
[V:2] [FC=A,][FCA,] [FDB,][FDB,] | 
[V:1] z/ A/F/=B,/ z/ =B/A/=D/ | 
[V:2] =D,2F,2 | 
[V:1] z/ =d/F/A/ e/A/c/e/ | 
[V:2] A,=B,C2 | 
[V:1] [a/A/][g/G/][f/F/][e/E/] [dBFD][=dAF=D] | 
[V:2] [F,/F,,/][E,/E,,/][D,/D,,/][C,/C,,/] [B,,B,,,][=B,,=B,,,] | 
[V:1] e>c d/ec/ & [A2E2]-[A/E/]^F3/ | 
[V:2] [C,C,,][CA,E,] [A,A,,][=A,=A,,] | 
[V:1] d>B c/dB/ & G2-G/G3/ | 
[V:2] [B,B,,][DG,E,] [E,E,,][DG,E,] | 
[V:1] c>A B/cA/ & A2z/ E3/ | 
[V:2] [A,A,,][CA,E,] [A,A,,][_G,_G,,] | 
[V:1] [a/A/][g/G/][f/F/][e/E/] [dBFD][=dAF=D] | 
[V:2] [F,/F,,/][E,/E,,/][D,/D,,/][C,/C,,/] [B,,B,,,][=B,,=B,,,] | 
[V:1] e>c d/ec/ & [A2E2]-[A/E/]^F3/ | 
[V:2] [C,C,,][CA,E,] [A,A,,][=A,=A,,] | 
[V:1] [dG]>B c/d/F/G/ |[1 
[V:2] [B,B,,][DG,E,] [E,E,,][DG,E,] | 
[V:1] A2-A z :|][2 
[V:2] [A,A,,][CA,E,] [CA,E,][E,E,,] :|]  
[V:1] Ac [fc][^fc] ]|: 
[V:2] [A,A,,][CA,E,] [CA,E,][=A,=A,,] ]|:  
[V:1] z/ [g/e/][g/e/][a/f/] [b/g/][ge][f/d/] | 
[V:2] [B,B,,][DG,E,] [E,E,,][DG,E,] | 
[V:1] [B/G/][=B/A/][c/=A/][d/_B/]- [d/B/][e/c/][dB] | 
[V:2] [E,E,,][DG,E,] [E,E,,][DG,E,] | 
[V:1] z/ [c/A/][c/A/][d/B/] [e/c/][ac][f/c/] | 
[V:2] [A,A,,][CA,E,] [E,E,,][CA,E,] | 
[V:1] [e/c/][d/B/][c/A/][e/c/]- [e/c/][=d/=B/][ec] | 
[V:2] [A,A,,][CA,E,] [A,A,,][^F,^F,,] | 
[V:1] z/ [d/B/][d/B/][e/c/] [f/d/][dB][B/G/] | 
[V:2] [G,G,,][DG,E,] [E,E,,][DG,E,] | 
[V:1] [G/E/][A/F/][=A/^F/][B/G/]- [B/G/][c/_A/][dB] | 
[V:2] [B,B,,][DG,E,] [E,E,,][DG,E,] | 
[V:1] z/ [c/A/][c/A/][d/B/] [e/c/][ac][f/c/] | 
[V:2] [A,A,,][CA,E,] [E,E,,][CA,E,] | 
[V:1] [e/c/][a/c/][b/d/][c'/e/]- [c'/e/][e/c/][f/c/][^f/c/] | 
[V:2] [A,A,,][CA,E,] [A,A,,][=A,=A,,] | 
[V:1] z/ [g/e/][g/e/][a/f/] [b/g/][ge][f/d/] | 
[V:2] [B,B,,][DG,E,] [E,E,,][DG,E,] | 
[V:1] [B/G/][=B/A/][c/=A/][d/_B/]- [d/B/][e/c/][dB] | 
[V:2] [E,E,,][DG,E,] [E,E,,][DG,E,] | 
[V:1] z/ [c/A/]e/A/ _G/[ec]f/ & x2_G2 | 
[V:2] [A,A,,][CA,E,] [E,E,,][A,,A,,,] | 
[V:1] dA/d/ f/af/ & [A4F4] | 
[V:2] [D,D,,][DA,F,] [A,,A,,,][DA,F,] | 
[V:1] z/ B/A/F/ =B/AF/ | 
[V:2] [D,D,,][DA,F,] [=D,=D,,][=B,A,F,] | 
[V:1] c/A/E/e/- e/c/E/F/ | 
[V:2] [E,E,,][CA,E,][C2A,2F,2] | 
[V:1] A>B c/Bc/ & [F2=D2][G2_D2] |[1 
[V:2] [F,F,,][B,,B,,,][E,2E,,2] | 
[V:1] [AEC]c [fc][^fc] :|][2 
[V:2] [A,A,,][CA,E,] [CA,E,][=A,=A,,] :|]  
[V:1] [A2E2C2][aecA] z || 
[V:2] [A,A,,][E,E,,][A,,A,,,] [E,E,,] ||  
[V:1] z/ e'/c'/a/ e/fc/ | 
[V:2] [A,A,,][CA,E,] [CC,][=A,=A,,] | 
[V:1] d/G/f/e/ d/B/G/E/ | 
[V:2] [B,B,,][DG,E,] [DG,E,][E,E,,] | 
[V:1] z/ e'/c'/a/ e/fc/ | 
[V:2] [A,A,,][CA,E,] [CC,][=A,=A,,] | 
[V:1] d/G/f/e/ d/B/G/E/ | 
[V:2] [B,B,,][DG,E,][D2G,2E,2] | 
[V:1] Bc/B/ A/B/c | 
[V:2] [CG,=E,][CG,E,] [CA,F,][FCA,] | 
[V:1] ef/e/ d/e/f | 
[V:2] [FC=A,][FCA,] [FDB,][FDB,] | 
[V:1] z/ A/F/=B,/ z/ =B/A/=D/ | 
[V:2] =D,2F,2 | 
[V:1] z/ =d/F/A/ e/A/c/e/ | 
[V:2] A,=B,C2 | 
[V:1] [a/A/][g/G/][f/F/][e/E/] [dBFD][=dAF=D] | 
[V:2] [F,/F,,/][E,/E,,/][D,/D,,/][C,/C,,/] [B,,B,,,][=B,,=B,,,] | 
[V:1] e>c d/ec/ & [A2E2]-.[A/E/]^F3/ | 
[V:2] [C,C,,][CA,E,] [A,A,,][=A,=A,,] | 
[V:1] d>B c/dB/ & G2-G/G3/ | 
[V:2] [B,B,,][DG,E,] [E,E,,][DG,E,] | 
[V:1] c>A B/cA/ & A2z/ E3/ | 
[V:2] [A,A,,][CA,E,] [A,A,,][_G,_G,,] | 
[V:1] [a/A/][g/G/][f/F/][e/E/] [dBFD][=dAF=D] | 
[V:2] [F,/F,,/][E,/E,,/][D,/D,,/][C,/C,,/] [B,,B,,,][=B,,=B,,,] | 
[V:1] e>c d/ec/ & [A2E2]-[A/E/]^E3/ | 
[V:2] [C,C,,][CA,E,] [A,A,,][=A,=A,,] | 
[V:1] [dG]>B c/d/F/G/ | 
[V:2] [B,B,,][DG,E,] [E,E,,][DG,E,] | 
[V:1] [A2C2][acA] z ||  
[V:2] [A,A,,]E,A,, z ||  
[V:1]  [K:Db] A/c/e/[b/g/c/]- [b/g/c/]c/[bac] | 
[V:2]  [K:Db] [E,E,,][GCA,] [A,,A,,,][GCA,] | 
[V:1] A/c/e/[b/g/c/]- [b/g/c/]c/[bac] | 
[V:2] [E,E,,][GCA,] [E,E,,][=E,=E,,] | 
[V:1] d/a/e/a/ f/a/e/d/- | 
[V:2] [F,F,,][FDA,] [D,D,,][FDA,] | 
[V:1] d/B/d/=e/ f/A/B/d/ | 
[V:2] [=E2D2B,2=G,2][F2D2A,2] | 
[V:1] A/c/e/[b/g/c/]- [b/g/c/]c/[agc] | 
[V:2] [E,E,,][GCA,] [A,,A,,,][GCA,] | 
[V:1] A/c/e/[b/g/c/]- [b/g/c/]c/[agc] | 
[V:2] [E,E,,][GCA,] [E,E,,][=E,=E,,] | 
[V:1] d/a/e/a/ f/a/e/d/- | 
[V:2] [F,F,,][FDA,] [D,D,,][FDA,] | 
[V:1] d/B/d/=e/ f/d/A/G/ | 
[V:2] [=E2D2B,2=G,2][F/D/A,/][D/D,/][C/C,/][B,/B,,/] | 
[V:1] F/=A/c/[g/e/A/]- [g/e/A/]A/[feA] | 
[V:2] [=A,=A,,][FEA,] [F,F,,][FEA,] | 
[V:1] F/=A/c/[g/e/A/]- [g/e/A/]A/[feA] | 
[V:2] [=A,=A,,][FEA,] [F,F,,][FEA,] | 
[V:1] B/f/c/f/ d/f/c/B/ | 
[V:2] [B,B,,][FDB,] [B,B,,][FDB,] | 
[V:1] z/ f/d/c/ B z | 
[V:2] [F2E2=A,2][FDB,] z | 
[V:1] G/B/g/B/ d/[bdB][a/d/A/]- | 
[V:2] [E,E,,][GEB,] [G,G,,][=E,=E,,] | 
[V:1] [adA]>d f/F/B/A/ | 
[V:2] [F,F,,][FDA,] [A,A,,][FDA,] | 
[V:1] =G/B/d/_G/- G/f/e & =G>_G- G[cG] |[1 
[V:2] [E,E,,][EB,=G,] [A,,A,,,][CA,_G,] | 
[V:1] [dF]A/B/ d/c/B/__B/ :|][2 
[V:2] [D,D,,][DA,F,] [FDA,][=D,=D,,] :|]  
[V:1] [d2F2]e/c/e/c/ || 
[V:2] [D,D,,][DD,] [A,A,,][_G,_G,,] ||  
[V:1]  [K:Ab] d/e/f/g/ a/d/e/d/ | 
[V:2]  [K:Ab] F,[DA,F,] _F,[DA,F,] & [F,2F,,2][_F,2_F,,2] | 
[V:1] ca/f/- f/c/e/c/ | 
[V:2] [E,E,,][CA,E,] [A,A,,][=A,=A,,] | 
[V:1] dg/f/- f/d/e/d/ | 
[V:2] [B,B,,][DG,E,] [E,E,,][G,G,,] | 
[V:1] ca/f/- f/c/e/c/ | 
[V:2] [A,A,,][CA,E,] [A,A,,][_G,_G,,] | 
[V:1] d/e/f/g/ a/g/a/b/ & x2f2 | 
[V:2] F,[DA,F,] D,[DA,F,] & [F,2F,,2][D,2D,,2] | 
[V:1] [c'afc]a/f/- f/c/d/c/ | 
[V:2] [C,C,,][CA,F,] [C,C,,][CA,F,] | 
[V:1] [bg=ec]g/=e/- e/c/d/c/ | 
[V:2] [C,C,,][DC=E,] [C,C,,][DCE,] | 
[V:1] f2e/c/e/c/ | 
[V:2] [C2A,2F,2][A,A,,][_G,_G,,] | 
[V:1] d/e/f/g/ a/d/e/d/ | 
[V:2] [F,F,,][DA,F,] [_F,_F,,][DA,F,] | 
[V:1] ca/f/- f/c/e/c/ | 
[V:2] [E,E,,][CA,E,] [A,A,,][=A,=A,,] | 
[V:1] dg/f/- f/d/e/d/ | 
[V:2] [B,B,,][DG,E,] [E,E,,][G,G,,] | 
[V:1] ca/f/- f/c/e/c/ | 
[V:2] [A,A,,][CA,E,] [A,A,,][_G,_G,,] | 
[V:1] d/e/f/g/ a/g/a/b/ | 
[V:2] [F,F,,][DA,F,] [_F,_F,,][DA,F,] | 
[V:1] [c'ac]b/f/- f/c/e/c/ | 
[V:2] [E,E,,][CA,E,] [A,A,,][=A,=A,,] | 
[V:1] dg/f/- f/G/e |[1 
[V:2] [B,B,,][DG,E,] [E,E,,][DG,E,] | 
[V:1] A2e/c/e/c/ :|][2 
[V:2] [A,A,,][CA,E,] [A,A,,][_G,_G,,] :|]  
[V:1] [A2C2][acA] |]  
[V:2] [A,A,,][E,E,,][A,,A,,,] |]  


